X: 7280
T: Classical, The
R: jig
M: 6/8
K: Aminor
A2c BEE|Bcd BA(G|G)AA cAA|ecf edc|
ABc BEE|Bcd BAG|AcA GED|A,B,G, A,3:|
e2 a c'ba|bc'b edc|Bcd cde|de^f ef^g|
a3 c'ba|bc'b edc|AcA GED|A,B,G, A,3:|

